sources/design/Outline/ധ.svg

<svg:svg xmlns:cc="http://creativecommons.org/ns#" xmlns:dc="http://purl.org/dc/elements/1.1/" xmlns:inkscape="http://www.inkscape.org/namespaces/inkscape" xmlns:rdf="http://www.w3.org/1999/02/22-rdf-syntax-ns#" xmlns:sodipodi="http://sodipodi.sourceforge.net/DTD/sodipodi-0.dtd" xmlns:svg="http://www.w3.org/2000/svg" xml:space="preserve" width="1000" height="1000" version="1.1" style="clip-rule:evenodd;fill-rule:evenodd;image-rendering:optimizeQuality;shape-rendering:geometricPrecision;text-rendering:geometricPrecision" viewBox="0 0 1000 1000" id="svg10" sodipodi:docname="ധ.svg" inkscape:version="1.1.1 (3bf5ae0d25, 2021-09-20)"><svg:text text-anchor="middle" x="693.51324" y="786.68048" id="bottom" inkscape:label="bottom" style="clip-rule:evenodd;fill-rule:evenodd;image-rendering:optimizeQuality;shape-rendering:geometricPrecision;text-rendering:geometricPrecision">✛</svg:text><svg:metadata id="metadata14"><rdf:RDF><cc:Work rdf:about=""><dc:format>image/svg+xml</dc:format><dc:type rdf:resource="http://purl.org/dc/dcmitype/StillImage" /></cc:Work></rdf:RDF></svg:metadata><sodipodi:namedview pagecolor="#ffffff" bordercolor="#666666" borderopacity="1" objecttolerance="10" gridtolerance="10" guidetolerance="10" inkscape:pageopacity="0" inkscape:pageshadow="2" inkscape:window-width="1920" inkscape:window-height="1009" id="namedview12" showgrid="false" inkscape:zoom="0.9588368" inkscape:cx="315.48643" inkscape:cy="589.25565" inkscape:window-x="0" inkscape:window-y="0" inkscape:window-maximized="1" inkscape:current-layer="svg10" showguides="true" inkscape:guide-bbox="true" inkscape:document-rotation="0" inkscape:snap-to-guides="true" inkscape:pagecheckerboard="0"><sodipodi:guide position="0,1000" orientation="0,1" id="guide16" inkscape:label="" inkscape:locked="true" inkscape:color="rgb(0,0,255)" /><sodipodi:guide position="1763.3122,2036.1693" orientation="1000,0" id="guide18" /><sodipodi:guide position="0,200" orientation="0,1" id="guide20" inkscape:label="base" inkscape:locked="true" inkscape:color="rgb(0,0,255)" /><inkscape:grid type="xygrid" id="grid24" originx="-473.37552" originy="-489.69235" /><sodipodi:guide position="0,0" orientation="0,1" id="guide34" inkscape:label="bottom" inkscape:locked="true" inkscape:color="rgb(0,0,255)" /><sodipodi:guide position="225.05109,1693.3186" orientation="0,1" id="guide44" inkscape:label="" inkscape:locked="false" inkscape:color="rgb(0,0,255)" /><sodipodi:guide position="0,900" orientation="0,1" id="guide46" inkscape:label="" inkscape:locked="true" inkscape:color="rgb(0,0,255)" /><sodipodi:guide position="778.78863,579.95671" orientation="-1,0" id="guide841" inkscape:label="width" inkscape:locked="false" inkscape:color="rgb(0,0,255)" /><sodipodi:guide position="0,1000" orientation="0,1000" id="guide860" /><sodipodi:guide position="1000,1000" orientation="1000,0" id="guide862" /><sodipodi:guide position="1000,0" orientation="0,-1000" id="guide864" /><sodipodi:guide position="0,0" orientation="-1000,0" id="guide866" /></sodipodi:namedview>
 <svg:defs id="defs4"><inkscape:path-effect effect="fillet_chamfer" id="path-effect857" is_visible="true" lpeversion="1" satellites_param="F,0,1,1,0,18.142978,0,1 @ F,0,0,1,0,0,0,1 @ F,0,0,1,0,0,0,1 @ F,0,0,1,0,0,0,1 @ F,0,0,1,0,0,0,1 @ F,0,0,1,0,0,0,1 @ F,0,0,1,0,0,0,1 @ F,0,0,1,0,0,0,1 @ F,0,0,1,0,0,0,1 @ F,0,0,1,0,0,0,1 @ F,0,0,1,0,0,0,1 @ F,0,0,1,0,0,0,1 @ F,0,0,1,0,0,0,1 @ F,0,0,1,0,0,0,1 @ F,0,0,1,0,0,0,1 @ F,0,0,1,0,0,0,1 @ F,0,0,1,0,0,0,1 @ F,0,1,1,0,18.142978,0,1 @ F,0,1,1,0,18.142978,0,1 @ F,0,0,1,0,0,0,1 @ F,0,0,1,0,0,0,1 @ F,0,0,1,0,0,0,1 @ F,0,0,1,0,0,0,1 @ F,0,0,1,0,0,0,1 @ F,0,0,1,0,0,0,1 @ F,0,0,1,0,0,0,1 @ F,0,0,1,0,0,0,1 @ F,0,0,1,0,0,0,1 @ F,0,0,1,0,0,0,1 @ F,0,1,1,0,18.142978,0,1 @ F,0,1,1,0,18.142978,0,1 @ F,0,0,1,0,0,0,1 @ F,0,0,1,0,0,0,1 @ F,0,0,1,0,0,0,1 @ F,0,0,1,0,0,0,1 @ F,0,0,1,0,0,0,1 @ F,0,0,1,0,0,0,1 @ F,0,0,1,0,0,0,1 @ F,0,0,1,0,0,0,1 @ F,0,0,1,0,0,0,1 @ F,0,0,1,0,0,0,1 @ F,0,1,1,0,18.142978,0,1" unit="px" method="auto" mode="F" radius="0" chamfer_steps="1" flexible="false" use_knot_distance="true" apply_no_radius="true" apply_with_radius="true" only_selected="true" hide_knots="false" /><inkscape:path-effect effect="spiro" id="path-effect862" is_visible="true" lpeversion="1" /><inkscape:path-effect effect="spiro" id="path-effect1521" is_visible="true" lpeversion="1" /><inkscape:path-effect effect="spiro" id="path-effect858" is_visible="true" lpeversion="1" /><inkscape:path-effect effect="spiro" id="path-effect854" is_visible="true" lpeversion="1" />
  <svg:style type="text/css" id="style2">
   
    .fil0 {fill:#EF7F1A;fill-rule:nonzero}
   
  </svg:style>
 <inkscape:path-effect effect="spiro" id="path-effect1214" is_visible="true" lpeversion="1" /><inkscape:path-effect effect="spiro" id="path-effect1195" is_visible="true" lpeversion="1" /><inkscape:path-effect effect="spiro" id="path-effect992" is_visible="true" lpeversion="1" /><inkscape:path-effect effect="spiro" id="path-effect287" is_visible="true" lpeversion="1" /><inkscape:path-effect effect="spiro" id="path-effect1032" is_visible="true" lpeversion="1" /><inkscape:path-effect effect="spiro" id="path-effect1218" is_visible="true" lpeversion="1" /><inkscape:path-effect effect="spiro" id="path-effect309" is_visible="true" lpeversion="1" /><inkscape:path-effect effect="spiro" id="path-effect1176" is_visible="true" lpeversion="1" /><inkscape:path-effect effect="spiro" id="path-effect1026" is_visible="true" lpeversion="1" /><inkscape:path-effect effect="spiro" id="path-effect1030" is_visible="true" lpeversion="1" /></svg:defs>
 
<svg:g id="path1087-1-75"><svg:path style="color:#000000;clip-rule:nonzero;fill:#1a5fb4;fill-rule:nonzero;stroke-linecap:round;stroke-linejoin:round;-inkscape-stroke:none;paint-order:fill stroke markers;shape-rendering:auto" d="M 558.34375,40.558594 C 545.24352,41.077270999999996 533.70131,48.464779 526.89844,56.849609 L 456.9668,143.04492 C 440.58923999999996,163.23098 447.13297,197.43569 468.67969,210.76172 C 497.96806,228.87574 524.93842,250.80617 548.62109,275.78906 C 603.72268,333.91581 641.09825,409.1174 659.15039,488.45898 C 665.51879,516.44894 668.87795,543.45221 664.9863300000001,567.57812 C 663.0488600000001,579.58935 659.31104,590.9120800000001 653.8418,600.56641 C 648.40828,610.15766 641.04172,618.35076 632.76367,623.90234 C 623.4931700000001,630.1195 611.69335,633.89558 599.65625,634.54883 C 587.53196,635.2068099999999 574.63657,632.8261799999999 562.56445,627.87695 C 538.3263,617.9399999999999 516.83229,597.3740799999999 500.67186999999996,572.4296899999999 C 481.19546999999994,542.3669 469.03743999999995,506.76983999999993 463.24022999999994,469.78124999999994 C 457.43121999999994,432.71732 457.8008899999999,394.0203399999999 461.61718999999994,355.04296999999997 C 463.81267999999994,332.61954 467.1044999999999,310.30085999999994 471.47655999999995,288.19727 C 473.95483999999993,275.66799000000003 471.16011,261.61365 462.91601999999995,251.13281 C 454.67191999999994,240.65198 441.36350999999996,234.50319000000002 428.40819999999997,234.17773 L 318.87694999999997,231.42578 C 327.84819,225.93382 336.97288,220.69796 346.37109,215.98633 C 357.02493999999996,210.64521000000002 368.29645,199.46173000000002 370.09375,183.75 C 371.89105,168.03827 363.01062,154.04598 353.42383,146.58789000000002 L 240.48828,58.730469 C 230.74504000000002,51.150666 215.25029,46.323603 200.79297,51.402344 C 186.33565,56.481083999999996 177.49254,69.517371 174.41016,81.292969 C 168.92158999999998,102.26089999999999 162.16980999999998,122.90116 154.20507999999998,143.05664000000002 C 123.81744999999998,219.95528000000002 74.48372999999998,291.67095 32.72460899999999,371.04297 C 0.3363101299999869,432.60376 -28.26860700000001,501.46801000000005 -29.392578000000015,576.45898 C -29.956150000000015,614.06033 -23.356413000000014,652.53894 -7.087890600000016,687.95117 C 9.241659999999985,723.49625 35.217387999999985,755.24661 69.62109399999997,776.52344 C 113.57163999999997,803.70447 166.73396999999997,810.85955 215.95311999999998,800.48242 C 264.90911,790.16078 308.38327,763.31672 341.57812,727.8027300000001 C 360.49929000000003,707.5596600000001 375.9286,684.3904100000001 387.79687,659.5332000000001 C 391.38331,666.7817600000001 395.11441,673.9596 399.09375,681.0039100000001 C 428.39655,732.8763300000002 470.17393,781.3740600000001 527.16992,809.1582000000001 C 555.72513,823.0781700000001 587.53056,831.3618700000001 620.2793,831.3691400000001 C 653.12823,831.3761400000001 686.28051,822.9450300000001 715.03125,805.1445300000001 C 753.70452,781.2006800000001 779.88816,743.3033400000002 794.24023,702.8828100000002 C 808.48609,662.7614500000002 811.35207,620.8945600000002 809.11719,581.0957000000002 C 804.63452,501.26811 779.71115,425.40644 747.9707,355.24414 C 716.25895,285.14527 677.73649,220.08113 642.75391,154.94727 C 626.77102,125.18883 611.3469,95.129368 596.49414,64.791016 C 591.08355,53.739295 579.4513,42.560394 564.04492,40.773437 C 562.1191200000001,40.550068 560.2152100000001,40.484497000000005 558.34375,40.558594 M 555.47852,116.85547 C 566.68459,139.15323 578.08663,161.35282999999998 589.89453,183.33789000000002 C 625.65531,249.92067000000003 663.39173,313.852 693.30469,379.97461 C 723.1889500000001,446.0338 745.3130000000001,515.00955 749.21289,584.45898 C 751.1491100000001,618.93927 748.34652,652.8200899999999 737.69922,682.80664 C 727.15815,712.4940300000001 708.02612,738.9121 683.44531,754.13086 C 665.1798399999999,765.4395999999999 642.7420599999999,771.37413 620.29297,771.36914 C 597.74369,771.36414 574.6122899999999,765.5353700000001 553.4609399999999,755.22461 C 511.04378999999994,734.54729 476.42769999999996,695.91556 451.33397999999994,651.49414 C 434.22765999999996,621.21216 421.24397999999997,588.5492 412.89257999999995,554.78711 A 30.003,30.003 0.0 0,0 353.86522999999994,559.61523 C 350.14457999999996,606.45909 329.83224999999993,652.50211 297.74413999999996,686.83203 C 272.17686,714.18555 238.82316999999995,734.34213 203.57616999999996,741.77344 C 168.59233999999998,749.14926 130.41765999999996,743.5762400000001 101.17968999999997,725.49414 C 78.157277,711.25602 59.291216,688.71518 47.433594,662.9043 C 35.514944,636.96057 30.15324,607.26938 30.601562,577.35742 C 31.501382,517.32178 55.335718,456.9303 85.824219,398.98047 C 125.32362,323.90353 176.25726,250.51627 210.00781,165.10742 C 215.52491,151.14589999999998 220.45166,136.95866999999998 224.90625,122.625 L 293.90234,176.30078 C 266.92021,192.18289000000001 241.65407999999996,210.9576 218.70507999999998,232.29492 C 181.67363999999998,266.72569 151.46006999999997,306.89691 125.95312999999999,348.82031 C 101.67101999999998,388.73057 79.23980899999998,434.16666 74.38476599999998,485.75391 C 71.94885399999998,511.63668 74.13960099999998,538.6111000000001 82.97460899999999,564.41797 C 91.84959299999998,590.34161 107.34302999999998,614.5101199999999 129.52148,632.65625 C 149.60707,649.09002 174.19521,659.68601 200.39258,662.43164 C 226.64646000000002,665.18319 253.42503,659.8984800000001 276.69727,646.64062 C 296.46479,635.37935 311.98204,619.41863 323.73828000000003,601.97461 C 335.43946000000005,584.61229 343.34967000000006,565.99376 349.20508,547.7207 C 374.05436000000003,470.17317999999995 365.43066,386.91234999999995 338.65430000000003,313.30859 C 336.00770000000006,306.03353999999996 333.09064,298.86224 330.09180000000003,291.72656 L 409.65430000000003,293.72461 C 406.45567000000005,312.12541 403.72242000000006,330.60612 401.90234000000004,349.19531 C 397.75093000000004,391.59533 397.11123000000003,435.35385 403.96289,479.07031 C 410.82636,522.86211 425.33442,566.4937600000001 450.31641,605.05469 C 471.34296,637.51021 500.76134,667.38592 539.80469,683.3925800000001 C 559.37332,691.41516 580.88422,695.65412 602.90625,694.4589800000001 C 625.01546,693.2591200000002 647.05301,686.5621300000001 666.18359,673.7324200000002 C 683.19109,662.3265400000001 696.47369,647.0392400000002 706.04687,630.1406200000001 C 715.58433,613.3050800000001 721.30987,595.1783500000001 724.2207,577.1328100000002 C 730.02567,541.1452200000002 724.79669,506.5316200000002 717.65625,475.14844000000016 C 697.45904,386.37901 655.67544,301.50596 592.16602,234.50977 C 568.56234,209.61021 542.05103,187.59565 513.53125,168.55859 L 555.47852,116.85547 M 259.13086,276.6543 C 259.931,281.57093999999995 261.47587999999996,286.14284999999995 263.39844,289.98436999999996 C 270.52235,304.21885 276.82867,318.86429999999996 282.26953,333.82030999999995 C 305.4527,397.54698999999994 311.81116,467.79436 292.06640999999996,529.41211 C 287.41473999999994,543.92863 281.52416999999997,557.25089 273.98241999999993,568.44141 C 266.49573999999996,579.55022 257.1462599999999,588.72346 246.99608999999992,594.50586 C 235.20810999999992,601.2212999999999 220.52316999999994,604.21217 206.64647999999994,602.75781 C 192.71328999999994,601.2975399999999 178.65941999999995,595.33646 167.51561999999996,586.21875 C 155.11517999999995,576.07286 145.33631999999994,561.33043 139.74022999999994,544.98437 C 134.10416999999995,528.52156 132.37069999999994,509.97579 134.12108999999995,491.37695 C 137.63866999999996,454.00098 155.04796999999996,416.43308 177.21093999999994,380.00586000000004 C 200.50816999999995,341.71435 227.43674999999993,306.21825 259.1308599999999,276.65430000000003 L 259.13086,276.6543" id="path23909" /></svg:g></svg:svg>

<svg:svg xmlns:cc="http://creativecommons.org/ns#" xmlns:dc="http://purl.org/dc/elements/1.1/" xmlns:inkscape="http://www.inkscape.org/namespaces/inkscape" xmlns:rdf="http://www.w3.org/1999/02/22-rdf-syntax-ns#" xmlns:sodipodi="http://sodipodi.sourceforge.net/DTD/sodipodi-0.dtd" xmlns:svg="http://www.w3.org/2000/svg" xml:space="preserve" width="1000" height="1000" version="1.1" style="clip-rule:evenodd;fill-rule:evenodd;image-rendering:optimizeQuality;shape-rendering:geometricPrecision;text-rendering:geometricPrecision" viewBox="0 0 1000 1000" id="svg10" sodipodi:docname="ധ.svg" inkscape:version="1.1.1 (3bf5ae0d25, 2021-09-20)"><svg:text text-anchor="middle" x="693.51324" y="786.68048" id="bottom" inkscape:label="bottom" style="clip-rule:evenodd;fill-rule:evenodd;image-rendering:optimizeQuality;shape-rendering:geometricPrecision;text-rendering:geometricPrecision">✛</svg:text><svg:metadata id="metadata14"><rdf:RDF><cc:Work rdf:about=""><dc:format>image/svg+xml</dc:format><dc:type rdf:resource="http://purl.org/dc/dcmitype/StillImage" /></cc:Work></rdf:RDF></svg:metadata><sodipodi:namedview pagecolor="#ffffff" bordercolor="#666666" borderopacity="1" objecttolerance="10" gridtolerance="10" guidetolerance="10" inkscape:pageopacity="0" inkscape:pageshadow="2" inkscape:window-width="1920" inkscape:window-height="1009" id="namedview12" showgrid="false" inkscape:zoom="0.9588368" inkscape:cx="315.48643" inkscape:cy="589.25565" inkscape:window-x="0" inkscape:window-y="0" inkscape:window-maximized="1" inkscape:current-layer="svg10" showguides="true" inkscape:guide-bbox="true" inkscape:document-rotation="0" inkscape:snap-to-guides="true" inkscape:pagecheckerboard="0"><sodipodi:guide position="0,1000" orientation="0,1" id="guide16" inkscape:label="" inkscape:locked="true" inkscape:color="rgb(0,0,255)" /><sodipodi:guide position="1763.3122,2036.1693" orientation="1000,0" id="guide18" /><sodipodi:guide position="0,200" orientation="0,1" id="guide20" inkscape:label="base" inkscape:locked="true" inkscape:color="rgb(0,0,255)" /><inkscape:grid type="xygrid" id="grid24" originx="-473.37552" originy="-489.69235" /><sodipodi:guide position="0,0" orientation="0,1" id="guide34" inkscape:label="bottom" inkscape:locked="true" inkscape:color="rgb(0,0,255)" /><sodipodi:guide position="225.05109,1693.3186" orientation="0,1" id="guide44" inkscape:label="" inkscape:locked="false" inkscape:color="rgb(0,0,255)" /><sodipodi:guide position="0,900" orientation="0,1" id="guide46" inkscape:label="" inkscape:locked="true" inkscape:color="rgb(0,0,255)" /><sodipodi:guide position="778.78863,579.95671" orientation="-1,0" id="guide841" inkscape:label="width" inkscape:locked="false" inkscape:color="rgb(0,0,255)" /><sodipodi:guide position="0,1000" orientation="0,1000" id="guide860" /><sodipodi:guide position="1000,1000" orientation="1000,0" id="guide862" /><sodipodi:guide position="1000,0" orientation="0,-1000" id="guide864" /><sodipodi:guide position="0,0" orientation="-1000,0" id="guide866" /></sodipodi:namedview>
 <svg:defs id="defs4"><inkscape:path-effect effect="fillet_chamfer" id="path-effect857" is_visible="true" lpeversion="1" satellites_param="F,0,1,1,0,18.142978,0,1 @ F,0,0,1,0,0,0,1 @ F,0,0,1,0,0,0,1 @ F,0,0,1,0,0,0,1 @ F,0,0,1,0,0,0,1 @ F,0,0,1,0,0,0,1 @ F,0,0,1,0,0,0,1 @ F,0,0,1,0,0,0,1 @ F,0,0,1,0,0,0,1 @ F,0,0,1,0,0,0,1 @ F,0,0,1,0,0,0,1 @ F,0,0,1,0,0,0,1 @ F,0,0,1,0,0,0,1 @ F,0,0,1,0,0,0,1 @ F,0,0,1,0,0,0,1 @ F,0,0,1,0,0,0,1 @ F,0,0,1,0,0,0,1 @ F,0,1,1,0,18.142978,0,1 @ F,0,1,1,0,18.142978,0,1 @ F,0,0,1,0,0,0,1 @ F,0,0,1,0,0,0,1 @ F,0,0,1,0,0,0,1 @ F,0,0,1,0,0,0,1 @ F,0,0,1,0,0,0,1 @ F,0,0,1,0,0,0,1 @ F,0,0,1,0,0,0,1 @ F,0,0,1,0,0,0,1 @ F,0,0,1,0,0,0,1 @ F,0,0,1,0,0,0,1 @ F,0,1,1,0,18.142978,0,1 @ F,0,1,1,0,18.142978,0,1 @ F,0,0,1,0,0,0,1 @ F,0,0,1,0,0,0,1 @ F,0,0,1,0,0,0,1 @ F,0,0,1,0,0,0,1 @ F,0,0,1,0,0,0,1 @ F,0,0,1,0,0,0,1 @ F,0,0,1,0,0,0,1 @ F,0,0,1,0,0,0,1 @ F,0,0,1,0,0,0,1 @ F,0,0,1,0,0,0,1 @ F,0,1,1,0,18.142978,0,1" unit="px" method="auto" mode="F" radius="0" chamfer_steps="1" flexible="false" use_knot_distance="true" apply_no_radius="true" apply_with_radius="true" only_selected="true" hide_knots="false" /><inkscape:path-effect effect="spiro" id="path-effect862" is_visible="true" lpeversion="1" /><inkscape:path-effect effect="spiro" id="path-effect1521" is_visible="true" lpeversion="1" /><inkscape:path-effect effect="spiro" id="path-effect858" is_visible="true" lpeversion="1" /><inkscape:path-effect effect="spiro" id="path-effect854" is_visible="true" lpeversion="1" />
  <svg:style type="text/css" id="style2">
   
    .fil0 {fill:#EF7F1A;fill-rule:nonzero}
   
  </svg:style>
 <inkscape:path-effect effect="spiro" id="path-effect1214" is_visible="true" lpeversion="1" /><inkscape:path-effect effect="spiro" id="path-effect1195" is_visible="true" lpeversion="1" /><inkscape:path-effect effect="spiro" id="path-effect992" is_visible="true" lpeversion="1" /><inkscape:path-effect effect="spiro" id="path-effect287" is_visible="true" lpeversion="1" /><inkscape:path-effect effect="spiro" id="path-effect1032" is_visible="true" lpeversion="1" /><inkscape:path-effect effect="spiro" id="path-effect1218" is_visible="true" lpeversion="1" /><inkscape:path-effect effect="spiro" id="path-effect309" is_visible="true" lpeversion="1" /><inkscape:path-effect effect="spiro" id="path-effect1176" is_visible="true" lpeversion="1" /><inkscape:path-effect effect="spiro" id="path-effect1026" is_visible="true" lpeversion="1" /><inkscape:path-effect effect="spiro" id="path-effect1030" is_visible="true" lpeversion="1" /></svg:defs>
 
<svg:g id="path1087-1-75"><svg:path style="color:#000000;clip-rule:nonzero;fill:#1a5fb4;fill-rule:nonzero;stroke-linecap:round;stroke-linejoin:round;-inkscape-stroke:none;shape-rendering:auto" d="m 558.34375,40.558594 c -13.10023,0.518677 -24.64244,7.906185 -31.44531,16.291015 L 456.9668,143.04492 c -16.37756,20.18606 -9.83383,54.39077 11.71289,67.7168 29.28837,18.11402 56.25873,40.04445 79.9414,65.02734 55.10159,58.12675 92.47716,133.32834 110.5293,212.66992 6.3684,27.98996 9.72756,54.99323 5.83594,79.11914 -1.93747,12.01123 -5.67529,23.33396 -11.14453,32.98829 -5.43352,9.59125 -12.80008,17.78435 -21.07813,23.33593 -9.2705,6.21716 -21.07032,9.99324 -33.10742,10.64649 -12.12429,0.65798 -25.01968,-1.72265 -37.0918,-6.67188 -24.23815,-9.93695 -45.73216,-30.50287 -61.89258,-55.44726 -19.4764,-30.06279 -31.63443,-65.65985 -37.43164,-102.64844 -5.80901,-37.06393 -5.43934,-75.76091 -1.62304,-114.73828 2.19549,-22.42343 5.48731,-44.74211 9.85937,-66.8457 2.47828,-12.52928 -0.31645,-26.58362 -8.56054,-37.06446 -8.2441,-10.48083 -21.55251,-16.62962 -34.50782,-16.95508 l -109.53125,-2.75195 c 8.97124,-5.49196 18.09593,-10.72782 27.49414,-15.43945 10.65385,-5.34112 21.92536,-16.5246 23.72266,-32.23633 1.7973,-15.71173 -7.08313,-29.70402 -16.66992,-37.16211 L 240.48828,58.730469 c -9.74324,-7.579803 -25.23799,-12.406866 -39.69531,-7.328125 -14.45732,5.07874 -23.30043,18.115027 -26.38281,29.890625 -5.48857,20.967931 -12.24035,41.608191 -20.20508,61.763671 -30.38763,76.89864 -79.72135,148.61431 -121.480471,227.98633 -32.38829887,61.56079 -60.993216,130.42504 -62.117187,205.41601 -0.563572,37.60135 6.036165,76.07996 22.3046874,111.49219 16.3295506,35.54508 42.3052786,67.29544 76.7089846,88.57227 43.950546,27.18103 97.112876,34.33611 146.332026,23.95898 48.95599,-10.32164 92.43015,-37.1657 125.625,-72.67969 18.92117,-20.24307 34.35048,-43.41232 46.21875,-68.26953 3.58644,7.24856 7.31754,14.4264 11.29688,21.47071 29.3028,51.87242 71.08018,100.37015 128.07617,128.15429 28.55521,13.91997 60.36064,22.20367 93.10938,22.21094 32.84893,0.007 66.00121,-8.42411 94.75195,-26.22461 38.67327,-23.94385 64.85691,-61.84119 79.20898,-102.26172 14.24586,-40.12136 17.11184,-81.98825 14.87696,-121.78711 C 804.63452,501.26811 779.71115,425.40644 747.9707,355.24414 716.25895,285.14527 677.73649,220.08113 642.75391,154.94727 626.77102,125.18883 611.3469,95.129368 596.49414,64.791016 591.08355,53.739295 579.4513,42.560394 564.04492,40.773437 c -1.9258,-0.223369 -3.82971,-0.28894 -5.70117,-0.214843 z m -2.86523,76.296876 c 11.20607,22.29776 22.60811,44.49736 34.41601,66.48242 35.76078,66.58278 73.4972,130.51411 103.41016,196.63672 29.88426,66.05919 52.00831,135.03494 55.9082,204.48437 1.93622,34.48029 -0.86637,68.36111 -11.51367,98.34766 -10.54107,29.68739 -29.6731,56.10546 -54.25391,71.32422 -18.26547,11.30874 -40.70325,17.24327 -63.15234,17.23828 -22.54928,-0.005 -45.68068,-5.83377 -66.83203,-16.14453 -42.41715,-20.67732 -77.03324,-59.30905 -102.12696,-103.73047 -17.10632,-30.28198 -30.09,-62.94494 -38.4414,-96.70703 a 30.003,30.003 0 0 0 -59.02735,4.82812 c -3.72065,46.84386 -24.03298,92.88688 -56.12109,127.2168 -25.56728,27.35352 -58.92097,47.5101 -94.16797,54.94141 -34.98383,7.37582 -73.15851,1.8028 -102.39648,-16.2793 C 78.157277,711.25602 59.291216,688.71518 47.433594,662.9043 35.514944,636.96057 30.15324,607.26938 30.601562,577.35742 31.501382,517.32178 55.335718,456.9303 85.824219,398.98047 125.32362,323.90353 176.25726,250.51627 210.00781,165.10742 c 5.5171,-13.96152 10.44385,-28.14875 14.89844,-42.48242 l 68.99609,53.67578 c -26.98213,15.88211 -52.24826,34.65682 -75.19726,55.99414 -37.03144,34.43077 -67.24501,74.60199 -92.75195,116.52539 -24.28211,39.91026 -46.713321,85.34635 -51.568364,136.9336 -2.435912,25.88277 -0.245165,52.85719 8.589843,78.66406 8.874984,25.92364 24.368421,50.09215 46.546871,68.23828 20.08559,16.43377 44.67373,27.02976 70.8711,29.77539 26.25388,2.75155 53.03245,-2.53316 76.30469,-15.79102 19.76752,-11.26127 35.28477,-27.22199 47.04101,-44.66601 11.70118,-17.36232 19.61139,-35.98085 25.4668,-54.25391 24.84928,-77.54752 16.22558,-160.80835 -10.55078,-234.41211 -2.6466,-7.27505 -5.56366,-14.44635 -8.5625,-21.58203 l 79.5625,1.99805 c -3.19863,18.4008 -5.93188,36.88151 -7.75196,55.4707 -4.15141,42.40002 -4.79111,86.15854 2.06055,129.875 6.86347,43.7918 21.37153,87.42345 46.35352,125.98438 21.02655,32.45552 50.44493,62.33123 89.48828,78.33789 19.56863,8.02258 41.07953,12.26154 63.10156,11.0664 22.10921,-1.19986 44.14676,-7.89685 63.27734,-20.72656 17.0075,-11.40588 30.2901,-26.69318 39.86328,-43.5918 9.53746,-16.83554 15.263,-34.96227 18.17383,-53.00781 5.80497,-35.98759 0.57599,-70.60119 -6.56445,-101.98437 C 697.45904,386.37901 655.67544,301.50596 592.16602,234.50977 568.56234,209.61021 542.05103,187.59565 513.53125,168.55859 Z M 259.13086,276.6543 c 0.80014,4.91664 2.34502,9.48855 4.26758,13.33007 7.12391,14.23448 13.43023,28.87993 18.87109,43.83594 23.18317,63.72668 29.54163,133.97405 9.79688,195.5918 -4.65167,14.51652 -10.54224,27.83878 -18.08399,39.0293 -7.48668,11.10881 -16.83616,20.28205 -26.98633,26.06445 -11.78798,6.71544 -26.47292,9.70631 -40.34961,8.25195 -13.93319,-1.46027 -27.98706,-7.42135 -39.13086,-16.53906 -12.40044,-10.14589 -22.1793,-24.88832 -27.77539,-41.23438 -5.63606,-16.46281 -7.36953,-35.00858 -5.61914,-53.60742 3.51758,-37.37597 20.92688,-74.94387 43.08985,-111.37109 23.29723,-38.29151 50.22581,-73.78761 81.91992,-103.35156 z" id="path23827" /></svg:g></svg:svg>
